outputs/icons/communication/phone_bluetooth_speaker_round.svg

<svg width="1200" height="1200" viewBox="0 0 1200 1200" fill="none" xmlns="http://www.w3.org/2000/svg"><g clip-path="url(#clip0_238_2786)"><path d="M961.5 763L834.5 748.5C804 745 774 755.5 752.5 777L660.5 869C519 797 403.002 681.5 331.002 539.5L423.502 447.002C445.002 425.502 455.502 395.502 452.002 365.001L437.502 239.001C431.502 188.502 389.002 150.501 338.002 150.501H251.502C195.002 150.501 148.002 197.501 151.502 254.001C178.002 681 519.5 1022 946 1048.5C1002.5 1052 1049.5 1005 1049.5 948.5V862C1050 811.5 1012 769 961.5 763ZM839.5 300.502L717 423.001C707 433.002 707 449.001 717 458.502C727 468.501 743 468.501 752.5 458.502L850 361.502V519C850 529 856 538.5 865.5 542.5C868.5 544 872 544.5 875 544.5C881.5 544.5 888 542 893 537L1002 428.001C1012 418.002 1012 402.001 1002 392.502L910.5 301.002L1002 209.502C1006.5 205.002 1009.5 198.501 1009.5 191.501C1009.5 184.502 1007 178.501 1002 173.501L893 64.502C886 57.502 875 55.002 865.5 59.001C856 63.002 850 72.001 850 82.002V239.501L752.5 142.001C742.5 132.001 726.5 132.001 717 142.001C707 152.001 707 168.001 717 177.501L839.5 300.502ZM900.5 143.001L948.5 191.001L900.5 239.001V143.001ZM900.5 361.502L948.5 409.502L900.5 457.501V361.502Z" fill="#1D1E23"/></g><defs><clipPath id="clip0_238_2786"><path width="24" fill="white" d="M0 0H1200V1200H0V0z"/></clipPath></defs></svg>

<svg xmlns="http://www.w3.org/2000/svg" width="1200" height="1200" fill="none"><g clip-path="url(#a)"><path fill="#000" d="m961.5 762.99-127-14.5c-30.5-3.5-60.5 7-82 28.5l-92 92c-141.5-72-257.498-187.5-329.498-329.5l92.5-92.501c21.5-21.5 32-51.5 28.5-82l-14.5-126c-6-50.5-48.5-88.5-99.5-88.5h-86.5c-56.5 0-103.5 47-100 103.5C178.002 680.99 519.5 1021.99 946 1048.49c56.5 3.5 103.5-43.5 103.5-100v-86.5c.5-50.5-37.5-93-88-99m-122-462.501L717 422.989c-10 10-10 26 0 35.5 10 10 26 10 35.5 0l97.5-97V518.99c0 10 6 19.5 15.5 23.5 3 1.5 6.5 2 9.5 2 6.5 0 13-2.5 18-7.5l109-109.001c10-10 10-26 0-35.5l-91.5-91.5 91.5-91.5c4.5-4.5 7.5-11 7.5-18q0-10.5-7.5-18l-109-109c-7-7-18-9.5-27.5-5.5s-15.5 13-15.5 23v157.5l-97.5-97.5c-10-10-26-10-35.5 0-10 10-10 26 0 35.5zm61-157.5 48 48-48 48zm0 218.5 48 48-48 48z"/></g><defs><clipPath id="a"><path fill="#fff" d="M0 0h1200v1200H0z"/></clipPath></defs></svg>
